_icons/SVG/347-anorith-shiny.svg

<svg xmlns="http://www.w3.org/2000/svg" width="32" height="32"><path fill="#DADDDC" d="M13.699 6.984c-1.592-.639-6.225-2.573-9.161-1.343-.136.057-.199.23-.124.357 1.406 2.396 7.578 4.206 8.602 4.113 1.057-.096.683-3.127.683-3.127z"/><path fill="#DD564C" d="M7.805 5.294c-1.16-.119-2.305-.056-3.268.347-.136.057-.199.23-.124.357.456.777 1.413 1.492 2.533 2.101 2.41-.306 2.207-1.349.859-2.805z"/><path fill="#D1D4D4" d="M18.433 6.984c1.592-.639 6.225-2.573 9.161-1.343.136.057.199.23.124.357-1.406 2.396-7.578 4.206-8.602 4.113-1.058-.096-.683-3.127-.683-3.127z"/><path fill="#D64F45" d="M24.326 5.294c1.16-.12 2.305-.056 3.267.347.136.057.199.23.124.357-.456.777-1.413 1.492-2.533 2.101-2.408-.306-2.206-1.349-.858-2.805z"/><path fill="#E3E5E5" d="M12.215 9.329c-1.639-.504-6.418-2.045-9.241-.574-.131.068-.18.246-.095.367 1.601 2.27 7.903 3.559 8.915 3.38 1.047-.184.421-3.173.421-3.173z"/><path fill="#E55D53" d="M6.2 8.137c-1.166-.023-2.301.136-3.227.618a.258.258 0 00-.094.367c.519.736 1.532 1.369 2.699 1.882 2.376-.507 2.087-1.529.622-2.867z"/><path fill="#DADDDC" d="M19.917 9.329c1.639-.504 6.418-2.045 9.241-.574.131.068.179.246.094.366-1.601 2.27-7.903 3.559-8.915 3.38-1.047-.183-.42-3.172-.42-3.172z"/><path fill="#DD564C" d="M25.931 8.137c1.166-.022 2.302.136 3.227.618.131.068.179.246.094.366-.519.736-1.532 1.369-2.699 1.882-2.376-.506-2.087-1.528-.622-2.866z"/><path fill="#EDEEEE" d="M11.418 12.016c-1.672-.382-6.551-1.569-9.258.106a.257.257 0 00-.067.372c1.763 2.147 8.142 2.969 9.139 2.717 1.03-.26.186-3.195.186-3.195z"/><path fill="#E7685F" d="M5.333 11.268c-1.165.063-2.286.305-3.173.854a.257.257 0 00-.067.372c.572.696 1.628 1.253 2.83 1.679 2.332-.679 1.969-1.678.41-2.905z"/><path fill="#E3E5E5" d="M20.713 12.016c1.672-.382 6.551-1.569 9.258.106.125.077.16.258.067.372-1.763 2.147-8.142 2.969-9.139 2.717-1.03-.26-.186-3.195-.186-3.195z"/><path fill="#E55D53" d="M26.798 11.268c1.165.063 2.286.305 3.173.854.125.077.16.258.067.372-.572.696-1.628 1.253-2.83 1.679-2.332-.679-1.969-1.678-.41-2.905z"/><path fill="#807A7A" d="M11.743.214c.029-.148.192-.252.334-.2 1.664.619 2.613 2.887 2.811 3.915.208 1.083-1.792 1.375-1.792 1.375S11.04 3.761 11.743.214z"/><path fill="#746E6E" d="M20.257.214c-.029-.148-.192-.252-.334-.2-1.664.619-2.613 2.887-2.811 3.915-.208 1.083 1.792 1.375 1.792 1.375s2.056-1.543 1.353-5.09z"/><path fill="#F7F7F7" d="M10.479 14.778c-1.69-.293-6.625-1.218-9.24.598-.121.084-.146.267-.047.375 1.875 2.05 8.289 2.532 9.271 2.227 1.015-.314.016-3.2.016-3.2z"/><path fill="#E9746A" d="M4.363 14.355c-1.16.125-2.266.426-3.123 1.021-.121.084-.146.267-.047.375.608.665 1.693 1.164 2.915 1.526 2.292-.802 1.877-1.78.255-2.922z"/><path fill="#EDEEEE" d="M21.652 14.778c1.69-.293 6.625-1.218 9.24.598.121.084.146.267.047.375-1.875 2.05-8.289 2.532-9.271 2.227-1.015-.314-.016-3.2-.016-3.2z"/><path fill="#E7685F" d="M27.769 14.355c1.16.125 2.266.426 3.123 1.021.121.084.146.267.047.375-.608.665-1.693 1.164-2.915 1.526-2.293-.802-1.878-1.78-.255-2.922z"/><path fill="#FFAD68" d="M23.937 13.345c0-5.663-3.444-8.797-7.542-10.43a1.058 1.058 0 00-.79.003c-4.098 1.671-7.543 4.764-7.543 10.427 0 5.684 3.933 9.362 7.625 10.493.205.063.419.063.624 0 3.694-1.131 7.626-4.809 7.626-10.493z"/><path fill="#FFB76D" d="M16 2.84v21.045c-.105 0-.21-.016-.312-.047-3.693-1.131-7.625-4.809-7.625-10.493 0-5.663 3.445-8.756 7.543-10.427.126-.051.26-.077.394-.078z"/><path fill="#807A7A" d="M22.057 13.349c0-4.321-2.628-6.712-5.755-7.959a.806.806 0 00-.603.003c-3.127 1.275-5.756 3.635-5.756 7.956 0 4.337 3.001 7.144 5.819 8.007.156.048.32.048.476 0 2.818-.863 5.819-3.67 5.819-8.007z"/><path fill="#8D8888" d="M16 5.333v16.059a.808.808 0 01-.238-.036c-2.818-.863-5.819-3.67-5.819-8.007 0-4.321 2.629-6.681 5.756-7.956a.824.824 0 01.301-.06z"/><path fill="#807A7A" d="M16 11.625v9.767a.808.808 0 01-.238-.036c-2.818-.863-5.819-3.67-5.819-8.007 0-1.744.428-3.169 1.144-4.331.621.94 2.205 2.607 4.913 2.607z"/><path fill="#746E6E" d="M16 16.75v4.642a.808.808 0 01-.238-.036c-2.818-.863-5.819-3.67-5.819-8.007C11.875 15.375 13.5 16.75 16 16.75z"/><path fill="#746E6E" d="M20.912 9.018c.716 1.163 1.144 2.587 1.144 4.331 0 4.337-3.001 7.144-5.819 8.007a.797.797 0 01-.237.036v-9.767c2.708 0 4.292-1.667 4.912-2.607z"/><path fill="#6D6666" d="M22.057 13.349c0 4.337-3.001 7.144-5.819 8.007a.808.808 0 01-.238.036V16.75c2.5 0 4.125-1.375 6.057-3.401z"/><path fill="#FFAD68" d="M8.063 20.979h3.29v-2h-3.29c-.353.354-.389 1.686 0 2z"/><path fill="#FCA15E" d="M23.937 20.979h-3.29v-2h3.29c.353.354.389 1.686 0 2z"/><path fill="#807A7A" d="M9.044 29.858c.545.901 1.855 2.344 2.4 2.118.545-.225-.273-3.966-.655-4.101-.381-.135-1.745 1.983-1.745 1.983z"/><path fill="#F79654" d="M8.345 24.206c-.494.801-.775 1.653-.718 2.408.061.811.281 1.315.403 1.607.252.602.743 2.495 1.616 2.405.388-.04 1.459-2.359 1.8-2.794.305-.39.388-1.178.273-1.487-.438-1.174-2.451-3.635-3.374-2.139z"/><path fill="#FCA15E" d="M12.536 21.25c-2.455.225-5.073 3.2-4.909 5.363.164 2.163.764 2.434 2.455.27 1.22-1.561 2.509-1.22 3.327-2.208.709-.856 1.473-1.758 1.473-1.758l-2.346-1.667z"/><path fill="#746E6E" d="M22.956 29.858c-.545.901-1.855 2.344-2.4 2.118s.273-3.966.655-4.101c.381-.135 1.745 1.983 1.745 1.983z"/><path fill="#EF8C48" d="M23.655 24.206c.494.801.775 1.653.718 2.408-.061.811-.281 1.315-.403 1.607-.252.602-.743 2.495-1.616 2.405-.388-.04-1.459-2.359-1.8-2.794-.305-.39-.388-1.178-.273-1.487.438-1.174 2.451-3.635 3.374-2.139z"/><path fill="#F79654" d="M19.464 21.25c2.455.225 5.073 3.2 4.909 5.363s-.764 2.434-2.455.27c-1.22-1.561-2.509-1.22-3.327-2.208-.709-.856-1.473-1.758-1.473-1.758l2.346-1.667z"/><path fill="#8CA188" d="M22.396 18.792c0 2.259-2.776 4.142-6.107 5.126-.187.055-.39.055-.577.001-3.369-.983-6.107-2.867-6.107-5.127 0-2.324 2.864-4.208 6.396-4.208s6.395 1.883 6.395 4.208z"/><path fill="#FCA15E" d="M22.396 18.792c0 2.259-2.776 4.142-6.107 5.126-.187.055-.39.055-.577.001-3.369-.983-6.107-2.867-6.107-5.127 0-2.324 2.864-4.208 6.396-4.208s6.395 1.883 6.395 4.208z"/><path fill="#FFAD68" d="M16 14.583v9.376a1.01 1.01 0 01-.289-.041c-3.369-.983-6.107-2.867-6.107-5.127 0-2.324 2.864-4.208 6.396-4.208z"/><circle fill="#ACD7DD" cx="6.5" cy="19.979" r="2.5"/><circle fill="#373F3F" cx="6.5" cy="19.979" r="1.5"/><circle fill="#A5D1D8" cx="25.5" cy="19.979" r="2.5"/><circle fill="#2B3332" cx="25.5" cy="19.979" r="1.5"/><path fill="#807A7A" d="M16 14.583c-2.836 0-5.237 1.216-6.075 2.898.812 1.667 3.096 3.027 5.786 3.812a1.046 1.046 0 00.577-.001c2.662-.786 4.965-2.147 5.785-3.815-.839-1.68-3.239-2.894-6.073-2.894z"/><circle fill="#FFF" cx="5.875" cy="19.375" r=".75"/><circle fill="#F7F7F7" cx="26.125" cy="19.375" r=".75"/><path fill="#8D8888" d="M16 14.583v6.751a1.01 1.01 0 01-.289-.041c-2.691-.785-4.974-2.146-5.786-3.812.838-1.682 3.239-2.898 6.075-2.898z"/></svg>

<?xml version="1.0" encoding="utf-8"?>
<!-- Generator: Adobe Illustrator 23.0.6, SVG Export Plug-In . SVG Version: 6.00 Build 0)  -->
<svg version="1.1" xmlns="http://www.w3.org/2000/svg" xmlns:xlink="http://www.w3.org/1999/xlink" x="0px" y="0px" width="32px"
	 height="32px" viewBox="0 0 32 32" enable-background="new 0 0 32 32" xml:space="preserve">
<g id="labels">
	<g>
	</g>
</g>
<g id="icons">
	<g>
		<g>
			<path fill="#DADDDC" d="M13.699,6.984c-1.592-0.639-6.225-2.573-9.161-1.343c-0.136,0.057-0.199,0.23-0.124,0.357
				c1.406,2.396,7.578,4.206,8.602,4.113C14.073,10.015,13.699,6.984,13.699,6.984z"/>
			<path fill="#DD564C" d="M7.805,5.294C6.645,5.175,5.5,5.238,4.537,5.641c-0.136,0.057-0.199,0.23-0.124,0.357
				c0.456,0.777,1.413,1.492,2.533,2.101C9.356,7.793,9.153,6.75,7.805,5.294z"/>
		</g>
		<g>
			<path fill="#D1D4D4" d="M18.433,6.984c1.592-0.639,6.225-2.573,9.161-1.343c0.136,0.057,0.199,0.23,0.124,0.357
				c-1.406,2.396-7.578,4.206-8.602,4.113C18.058,10.015,18.433,6.984,18.433,6.984z"/>
			<path fill="#D64F45" d="M24.326,5.294c1.16-0.12,2.305-0.056,3.267,0.347c0.136,0.057,0.199,0.23,0.124,0.357
				c-0.456,0.777-1.413,1.492-2.533,2.101C22.776,7.793,22.978,6.75,24.326,5.294z"/>
		</g>
		<g>
			<path fill="#E3E5E5" d="M12.215,9.329c-1.639-0.504-6.418-2.045-9.241-0.574C2.843,8.823,2.794,9.001,2.879,9.122
				c1.601,2.27,7.903,3.559,8.915,3.38C12.841,12.318,12.215,9.329,12.215,9.329z"/>
			<path fill="#E55D53" d="M6.2,8.137C5.034,8.114,3.899,8.273,2.973,8.755C2.843,8.823,2.794,9.001,2.879,9.122
				c0.519,0.736,1.532,1.369,2.699,1.882C7.954,10.497,7.665,9.475,6.2,8.137z"/>
		</g>
		<g>
			<path fill="#DADDDC" d="M19.917,9.329c1.639-0.504,6.418-2.045,9.241-0.574c0.131,0.068,0.179,0.246,0.094,0.366
				c-1.601,2.27-7.903,3.559-8.915,3.38C19.29,12.318,19.917,9.329,19.917,9.329z"/>
			<path fill="#DD564C" d="M25.931,8.137c1.166-0.022,2.302,0.136,3.227,0.618c0.131,0.068,0.179,0.246,0.094,0.366
				c-0.519,0.736-1.532,1.369-2.699,1.882C24.177,10.497,24.466,9.475,25.931,8.137z"/>
		</g>
		<g>
			<path fill="#EDEEEE" d="M11.418,12.016c-1.672-0.382-6.551-1.569-9.258,0.106c-0.125,0.077-0.16,0.258-0.067,0.372
				c1.763,2.147,8.142,2.969,9.139,2.717C12.262,14.951,11.418,12.016,11.418,12.016z"/>
			<path fill="#E7685F" d="M5.333,11.268c-1.165,0.063-2.286,0.305-3.173,0.854c-0.125,0.077-0.16,0.258-0.067,0.372
				c0.572,0.696,1.628,1.253,2.83,1.679C7.255,13.494,6.892,12.495,5.333,11.268z"/>
		</g>
		<g>
			<path fill="#E3E5E5" d="M20.713,12.016c1.672-0.382,6.551-1.569,9.258,0.106c0.125,0.077,0.16,0.258,0.067,0.372
				c-1.763,2.147-8.142,2.969-9.139,2.717C19.869,14.951,20.713,12.016,20.713,12.016z"/>
			<path fill="#E55D53" d="M26.798,11.268c1.165,0.063,2.286,0.305,3.173,0.854c0.125,0.077,0.16,0.258,0.067,0.372
				c-0.572,0.696-1.628,1.253-2.83,1.679C24.876,13.494,25.239,12.495,26.798,11.268z"/>
		</g>
		<path fill="#807A7A" d="M11.743,0.214c0.029-0.148,0.192-0.252,0.334-0.2c1.664,0.619,2.613,2.887,2.811,3.915
			c0.208,1.083-1.792,1.375-1.792,1.375S11.04,3.761,11.743,0.214z"/>
		<path fill="#746E6E" d="M20.257,0.214c-0.029-0.148-0.192-0.252-0.334-0.2c-1.664,0.619-2.613,2.887-2.811,3.915
			c-0.208,1.083,1.792,1.375,1.792,1.375S20.96,3.761,20.257,0.214z"/>
		<g>
			<path fill="#F7F7F7" d="M10.479,14.778c-1.69-0.293-6.625-1.218-9.24,0.598c-0.121,0.084-0.146,0.267-0.047,0.375
				c1.875,2.05,8.289,2.532,9.271,2.227C11.478,17.664,10.479,14.778,10.479,14.778z"/>
			<path fill="#E9746A" d="M4.363,14.355c-1.16,0.125-2.266,0.426-3.123,1.021c-0.121,0.084-0.146,0.267-0.047,0.375
				c0.608,0.665,1.693,1.164,2.915,1.526C6.4,16.475,5.985,15.497,4.363,14.355z"/>
		</g>
		<g>
			<path fill="#EDEEEE" d="M21.652,14.778c1.69-0.293,6.625-1.218,9.24,0.598c0.121,0.084,0.146,0.267,0.047,0.375
				c-1.875,2.05-8.289,2.532-9.271,2.227C20.653,17.664,21.652,14.778,21.652,14.778z"/>
			<path fill="#E7685F" d="M27.769,14.355c1.16,0.125,2.266,0.426,3.123,1.021c0.121,0.084,0.146,0.267,0.047,0.375
				c-0.608,0.665-1.693,1.164-2.915,1.526C25.731,16.475,26.146,15.497,27.769,14.355z"/>
		</g>
		<path fill="#FFAD68" d="M23.937,13.345c0-5.663-3.444-8.797-7.542-10.43c-0.254-0.101-0.537-0.1-0.79,0.003
			c-4.098,1.671-7.543,4.764-7.543,10.427c0,5.684,3.933,9.362,7.625,10.493c0.205,0.063,0.419,0.063,0.624,0
			C20.005,22.707,23.937,19.029,23.937,13.345z"/>
		<path fill="#FFB76D" d="M16,2.84v21.045c-0.105,0-0.21-0.016-0.312-0.047c-3.693-1.131-7.625-4.809-7.625-10.493
			c0-5.663,3.445-8.756,7.543-10.427C15.732,2.867,15.866,2.841,16,2.84z"/>
		<path fill="#807A7A" d="M22.057,13.349c0-4.321-2.628-6.712-5.755-7.959c-0.194-0.077-0.41-0.076-0.603,0.003
			c-3.127,1.275-5.756,3.635-5.756,7.956c0,4.337,3.001,7.144,5.819,8.007c0.156,0.048,0.32,0.048,0.476,0
			C19.056,20.493,22.057,17.686,22.057,13.349z"/>
		<path fill="#8D8888" d="M16,5.333v16.059c-0.08,0-0.16-0.012-0.238-0.036c-2.818-0.863-5.819-3.67-5.819-8.007
			c0-4.321,2.629-6.681,5.756-7.956C15.795,5.354,15.898,5.334,16,5.333z"/>
		<path fill="#807A7A" d="M16,11.625v9.767c-0.08,0-0.16-0.012-0.238-0.036c-2.818-0.863-5.819-3.67-5.819-8.007
			c0-1.744,0.428-3.169,1.144-4.331C11.708,9.958,13.292,11.625,16,11.625z"/>
		<path fill="#746E6E" d="M16,16.75v4.642c-0.08,0-0.16-0.012-0.238-0.036c-2.818-0.863-5.819-3.67-5.819-8.007
			C11.875,15.375,13.5,16.75,16,16.75z"/>
		<path fill="#746E6E" d="M20.912,9.018c0.716,1.163,1.144,2.587,1.144,4.331c0,4.337-3.001,7.144-5.819,8.007
			C16.16,21.38,16.08,21.392,16,21.392v-9.767C18.708,11.625,20.292,9.958,20.912,9.018z"/>
		<path fill="#6D6666" d="M22.057,13.349c0,4.337-3.001,7.144-5.819,8.007C16.16,21.38,16.08,21.392,16,21.392V16.75
			C18.5,16.75,20.125,15.375,22.057,13.349z"/>
		<path fill="#FFAD68" d="M8.063,20.979c0.728,0,3.29,0,3.29,0v-2c0,0-2.603,0-3.29,0C7.71,19.333,7.674,20.665,8.063,20.979z"/>
		<path fill="#FCA15E" d="M23.937,20.979c-0.728,0-3.29,0-3.29,0v-2c0,0,2.603,0,3.29,0C24.29,19.333,24.326,20.665,23.937,20.979z"
			/>
		<path fill="#807A7A" d="M9.044,29.858c0.545,0.901,1.855,2.344,2.4,2.118c0.545-0.225-0.273-3.966-0.655-4.101
			C10.408,27.74,9.044,29.858,9.044,29.858z"/>
		<path fill="#F79654" d="M8.345,24.206c-0.494,0.801-0.775,1.653-0.718,2.408c0.061,0.811,0.281,1.315,0.403,1.607
			c0.252,0.602,0.743,2.495,1.616,2.405c0.388-0.04,1.459-2.359,1.8-2.794c0.305-0.39,0.388-1.178,0.273-1.487
			C11.281,25.171,9.268,22.71,8.345,24.206z"/>
		<path fill="#FCA15E" d="M12.536,21.25c-2.455,0.225-5.073,3.2-4.909,5.363c0.164,2.163,0.764,2.434,2.455,0.27
			c1.22-1.561,2.509-1.22,3.327-2.208c0.709-0.856,1.473-1.758,1.473-1.758L12.536,21.25z"/>
		<path fill="#746E6E" d="M22.956,29.858c-0.545,0.901-1.855,2.344-2.4,2.118s0.273-3.966,0.655-4.101
			C21.592,27.74,22.956,29.858,22.956,29.858z"/>
		<path fill="#EF8C48" d="M23.655,24.206c0.494,0.801,0.775,1.653,0.718,2.408c-0.061,0.811-0.281,1.315-0.403,1.607
			c-0.252,0.602-0.743,2.495-1.616,2.405c-0.388-0.04-1.459-2.359-1.8-2.794c-0.305-0.39-0.388-1.178-0.273-1.487
			C20.719,25.171,22.732,22.71,23.655,24.206z"/>
		<path fill="#F79654" d="M19.464,21.25c2.455,0.225,5.073,3.2,4.909,5.363s-0.764,2.434-2.455,0.27
			c-1.22-1.561-2.509-1.22-3.327-2.208c-0.709-0.856-1.473-1.758-1.473-1.758L19.464,21.25z"/>
		<path fill="#8CA188" d="M22.396,18.792c0,2.259-2.776,4.142-6.107,5.126c-0.187,0.055-0.39,0.055-0.577,0.001
			c-3.369-0.983-6.107-2.867-6.107-5.127c0-2.324,2.864-4.208,6.396-4.208S22.396,16.467,22.396,18.792z"/>
		<path fill="#FCA15E" d="M22.396,18.792c0,2.259-2.776,4.142-6.107,5.126c-0.187,0.055-0.39,0.055-0.577,0.001
			c-3.369-0.983-6.107-2.867-6.107-5.127c0-2.324,2.864-4.208,6.396-4.208S22.396,16.467,22.396,18.792z"/>
		<path fill="#FFAD68" d="M16,14.583v9.376c-0.098,0-0.195-0.013-0.289-0.041c-3.369-0.983-6.107-2.867-6.107-5.127
			C9.604,16.467,12.468,14.583,16,14.583z"/>
		<circle fill="#ACD7DD" cx="6.5" cy="19.979" r="2.5"/>
		<circle fill="#373F3F" cx="6.5" cy="19.979" r="1.5"/>
		<circle fill="#A5D1D8" cx="25.5" cy="19.979" r="2.5"/>
		<circle fill="#2B3332" cx="25.5" cy="19.979" r="1.5"/>
		<path fill="#807A7A" d="M16,14.583c-2.836,0-5.237,1.216-6.075,2.898c0.812,1.667,3.096,3.027,5.786,3.812
			c0.094,0.027,0.191,0.041,0.289,0.041c0.097,0,0.195-0.014,0.288-0.042c2.662-0.786,4.965-2.147,5.785-3.815
			C21.234,15.797,18.834,14.583,16,14.583z"/>
		<circle fill="#FFFFFF" cx="5.875" cy="19.375" r="0.75"/>
		<circle fill="#F7F7F7" cx="26.125" cy="19.375" r="0.75"/>
		<path fill="#8D8888" d="M16,14.583v6.751c-0.098,0-0.195-0.013-0.289-0.041c-2.691-0.785-4.974-2.146-5.786-3.812
			C10.763,15.799,13.164,14.583,16,14.583z"/>
	</g>
</g>
</svg>
